!!!COM:	Martini, Johannes
!!!CDT:	~1440///-~1497//
!!!OPR:	Missa La Martinella
!!!ONM:	4
!!!OTL:	Sanctus
!!!AGN:	Mass; Sanctus
!!!SCT:	Mar1009d
!!!SCA:	Mar1009d
!!!voices:	4
**kern	**kern	**kern	**kern
*staff4	*staff3	*staff2	*staff1
*Ivox	*Ivox	*Ivox	*Ivox
*I"Bassus	*I"Tenor	*I"Contratenor	*I"Superius
*I'B	*I'T	*I'Ct	*I'S
*>[A,B,C,D]	*>[A,B,C,D]	*>[A,B,C,D]	*>[A,B,C,D]
*>A	*>A	*>A	*>A
*clefF4	*clefGv2	*clefGv2	*clefG2
*k[b-]	*k[b-]	*k[b-]	*k[b-]
*M2/1	*M2/1	*M2/1	*M2/1
*met(C)	*met(C.)	*met(C)	*met(C)
!!primary-mensuration: met(C)
!!section: Sanctus
!!!OMD: Sanctus
=1-	=1-	=1-	=1-
*	*rscale:1/2	*	*
!	!LO:TX:Z=6:X=-40:t=Twofold c.f. statement (under C-Dot and O)	!	!
!	!LO:N:vis=0.	!	!
0r	0r	0r	0g
=2	=2-	=2	=2
0r	0ryy	0r	1f
.	.	.	1g
=3	=3-	=3	=3
0r	0ryy	0G	0b-
=4	=4	=4	=4
!	!LO:N:vis=0.	!	!
0r	0r	1F	1a
.	.	1G	2.g/
.	.	.	4f/
=5	=5-	=5	=5
0r	0ryy	1B-	2d/
.	.	.	2.f/
.	.	1A	.
.	.	.	4e/
.	.	.	2c/
=6	=6-	=6	=6
0r	0ryy	1.G	2B-/
.	.	.	2.d/
.	.	.	4e/
.	.	4F/	4f/
.	.	4E/	4g/
=7	=7	=7	=7
!	!LO:N:vis=0.	!	!
0r	0r	1D	2a/
.	.	.	2f/
.	.	2r	2g/
.	.	[2G/	[2b-\
=8	=8-	=8	=8
0r	0ryy	4G/]	2b-\]
.	.	4A/	.
.	.	4B-\	4a/
.	.	4c\	4g/
.	.	2d\	2f/
.	.	2B-\	2g/
=9	=9-	=9	=9
0r	0ryy	2c\	2a/
.	.	1e-i	1g
.	.	4d\	4f/
.	.	4c\	4e/
=10	=10	=10	=10
!	!LO:N:vis=0.	!	!
0r	0r	2B-\	2d/
.	.	2c\	2e/
.	.	2d\	2f/
.	.	[2c\	2g/
=11	=11-	=11	=11
0r	0ryy	2c\]	2a/
.	.	4B-\	2.b-\
.	.	4A/	.
.	.	2G/	.
.	.	.	4a/
.	.	2B-\	[2g/
=12	=12-	=12	=12
2r	0ryy	1A	2g/]
2D\	.	.	2f#i/
2E\	.	2G/	1g
[2G\	.	[2B-\	.
=13	=13	=13	=13
!	!LO:N:vis=1.	!	!
4G\]	0r	4B-\]	1d
4F\	.	4A/	.
2G\	.	2B-\	.
2A\	.	2c\	[1f
[2B-\	.	[2d\	.
=14	=14-	=14	=14
2B-\]	1ryy	2d\]	2f/]
4A\	.	2e\	2g/
4G\	.	.	.
!	!LO:N:vis=1.	!	!
1F	[y1D	[1f	1a
=15	=15-	=15	=15
1BB-	0D]yy	2f\]	1b-
.	.	1.d	.
1r	.	.	1a
=16	=16	=16	=16
!	!LO:N:vis=1.	!	!
2.GG/	[y0G	2.B-\	2g/
.	.	.	1dd
4AA/	.	4c\	.
2BB-/	.	2d\	.
2C/	.	[2e-i\	2cc\
=17	=17-	=17	=17
1E-i	1G]yy	4e-\]	2b-\
.	.	4B-\	.
.	.	2c\	4a/
.	.	.	4g/
1D	1A	[1d	2f/
.	.	.	2a/
=18	=18-	=18	=18
2.G\	1B-	1d]	2g/
.	.	.	2.b-\
4A\	.	.	.
1B-	1G	1d	.
.	.	.	4cc\
.	.	.	2dd\
=19	=19	=19	=19
!	!LO:N:vis=1.	!	!
1.F	[y0c	1.f	2cc\
.	.	.	2.a/
.	.	.	4b-\
4E\	.	4c\	[2cc\
4D\	.	4d\	.
=20	=20-	=20	=20
1C	1c]yy	2.e-i\	4cc\]
.	.	.	4b-\
.	.	.	4a/
.	.	4d\	4g/
1F	1A	4c\	1a
.	.	4B-\	.
.	.	2c\	.
=21	=21-	=21	=21
1BB-	1d	1B-	0b-
1E-i	1B-	2.G/	.
.	.	4A/	.
=22	=22	=22	=22
1.E-i	0e-	2B-\	2r
.	.	2G/	2.b-\
.	.	2B-\	.
.	.	.	4b-\
2C/	.	[2c\	[2a/
=23	=23-	=23	=23
2F\	1.c	4c\]	4a/]
.	.	4B-\	4g/
2E-i\	.	4A/	1g
.	.	4G/	.
1D	.	1A	.
.	2d\	.	2f#i/
=24	=24-	=24	=24
2C/	1e-i	2r	1g
2E-i\	.	2.B-\	.
2.D\	1f	.	1r
.	.	4A/	.
.	.	[2A/	.
4C/	.	.	.
=25	=25	=25	=25
2D\	1B-	4A/]	2r
.	.	4G/	.
2BB-/	.	1G	2dd\
1AA	1c	.	2cc\
.	.	2F#i/	2a/
=26	=26-	=26	=26
1GG	1d	2G/	2b-\
.	.	2B-\	4a/
.	.	.	4g/
!	!LO:N:vis=1	!	!
1r	[y1c	2A/	2f/
.	.	2G/	4g/
.	.	.	[4b-\
=27	=27-	=27	=27
1r	1c]yy	1F	4b-\]
.	.	.	8a/L
.	.	.	8g/J
.	.	.	2a/
1BB-	1B-	1f	1b-
=28	=28	=28	=28
1.D	0A	1d	1.f
.	.	2d\	.
2E\	.	[2c\	2g/
*	*rscale:1	*	*
=29	=29	=29	=29
*	*M2/1	*	*
*	*met(O)	*	*
!	!LO:N:vis=0.	!	!
1F	0r	4c\]	1a
.	.	4B-\	.
.	.	2A/	.
2G\	.	2G/	2b-\
2D\	.	2F/	[2a/
=30	=30-	=30	=30
2E\	1ryy	2B-\	4a/]
.	.	.	4g/
!	!	!	!LO:N:vis=1
2C/	.	2c\	[y2g
=-	=	=-	=-
!	!LO:N:vis=0	!	!
1D	1r	1A	2g]
.	.	.	2f#i/
=31	=31-	=31	=31
2GG/	0ryy	2r	2g/
2BB-/	.	2.G/	2d/
1AA	.	.	2r
.	.	8F/L	.
.	.	8E/J	.
.	.	2F/	2A/
=32	=32	=32	=32
!	!LO:N:vis=0.	!	!
2GG/	0r	4G/	2B-/
.	.	4B-\	.
2FF/	.	4c\	2A/
.	.	2A/	.
1BB-	.	.	1d
.	.	8G/L	.
.	.	8F/J	.
.	.	2G/	.
=33	=33-	=33	=33
2AA/	1ryy	4A/	2c/
.	.	4c\	.
2GG/	.	4d\	2B-/
!	!	!LO:N:vis=2	!
.	.	[y4B-\	.
=-	=	=-	=-
!	!LO:N:vis=0	!	!
1C	1r	4B-\]yy	1e-i
.	.	8A/L	.
.	.	8G/J	.
.	.	2A/	.
=34	=34-	=34	=34
2BB-/	0ryy	4B-\	2d/
.	.	4d\	.
2AA/	.	4e-i\	2c/
.	.	2c\	.
1D	.	.	1f
.	.	8B-/L	.
.	.	8A/J	.
.	.	2B-\	.
=35	=35	=35	=35
2C/	0r	4c\	2e/
.	.	4e\	.
2BB-/	.	4f\	2d/
.	.	2d\	.
1E-i	.	.	1g
.	.	8c\L	.
.	.	8B-\J	.
.	.	2c\	.
=36	=36-	=36	=36
2D\	1D	1d	1f
2BB-/	.	.	.
=-	=	=-	=-
2GG/	1G	2D/	2.g/
[2C/	.	[2E/	.
.	.	.	4f/
=37	=37-	=37	=37
2C/]	2A/	4E/]	2e/
.	.	4C/	.
2BB-/	2B-\	2D/	2d/
4C/	2G/	4E/	1c
4BB-/	.	4F/	.
4AA/	[2c\	[2G/	.
4GG/	.	.	.
=38	=38	=38	=38
1AA	2c\]	2G/]	2A/
.	2A/	2F#i/	2c/
1GG	2d\	[1G	2B-/
.	2B-\	.	2G/
=39	=39-	=39	=39
2.C/	1e-	2G/]	2r
.	.	2E-i/	2g/
8D\L	.	.	.
8E\J	.	.	.
=-	=	=-	=-
2F\	2.c\	2A/	2a/
2D\	.	2F/	2b-\
.	4d\	.	.
=40	=40-	=40	=40
2C/	2e\	2G/	2cc\
2D\	2f\	2.d\	2f/
2G\	2B-\	.	2g/
.	.	4e\	.
2F\	2c\	[2f\	2a/
=41	=41	=41	=41
2BB-/	2d\	4f\]	2b-\
.	.	4g\	.
1F	1c	2.f\	2.a/
.	.	4e\	4g/
2G\	2B-\	4d\	[2g/
.	.	4c\	.
=42	=42-	=42	=42
1D	1A	1d	2g/]
.	.	.	2f#i/
=-	=	=-	=-
[1GGl	[1Gl	[1dl	1g
=43	=43	=43	=43
0GG]	0G]	0d]	0gl
!!LO:LB:i:g=z
=44||	=44||	=44||	=44||
*>B	*>B	*>B	*>B
*clefF4	*clefGv2	*clefGv2	*clefG2
*k[b-]	*k[b-]	*k[b-]	*k[b-]
*M2/1	*M2/1	*M2/1	*M2/1
*met(C|)	*met(C|)	*met(C|)	*met(C|)
!!section: Pleni sunt celi
!!!OMD: Pleni sunt celi
0r	0r	0G	[0d
=45	=45	=45	=45
0r	0r	1F	0d_
.	.	1G	.
=46	=46	=46	=46
0G	0r	0B-	0d_
=47	=47	=47	=47
1F	0r	1A	0d_
1G	.	[1G	.
=48	=48	=48	=48
0B-	0r	2G/]	0d_
.	.	4F/	.
.	.	4E/	.
.	.	1D	.
=49	=49	=49	=49
1A	0r	1F	0d]
[1G	.	2G/	.
.	.	[2B-\	.
=50	=50	=50	=50
2G\]	0r	2B-\]	0d
4F\	.	4A/	.
4E\	.	4G/	.
2D\	.	1F	.
[2F\	.	.	.
=51	=51	=51	=51
4F\]	0r	1A	[0f
4E\	.	.	.
4D\	.	.	.
4C/	.	.	.
1BB-	.	2B-\	.
.	.	[2d\	.
=52	=52	=52	=52
2AA/	0r	4d\]	0f]
.	.	4c\	.
2BB-/	.	2B-\	.
2C/	.	1A	.
2D\	.	.	.
=53	=53	=53	=53
2GG/	0r	1G	0g
2.G\	.	.	.
.	.	1r	.
4A\	.	.	.
4B-\	.	.	.
4c\	.	.	.
=54	=54	=54	=54
1A	0r	0r	1f
2r	.	.	1g
[2G\	.	.	.
=55	=55	=55	=55
4G\]	0r	0r	0b-
4A\	.	.	.
1B-	.	.	.
4A\	.	.	.
4G\	.	.	.
=56	=56	=56	=56
1F#i	0r	0r	1a
1G	.	.	[1g
=57	=57	=57	=57
0r	0r	2r	2g/]
.	.	2.G/	4f/
.	.	.	4e/
.	.	.	1d
.	.	4A/	.
.	.	4B-\	.
.	.	4c\	.
=58	=58	=58	=58
0r	0r	1A	1f
.	.	2r	2g/
.	.	[2G/	[2b-\
=59	=59	=59	=59
0r	0r	4G/]	2b-\]
.	.	4A/	.
.	.	1B-	4a/
.	.	.	4g/
.	.	.	1f
.	.	4A/	.
.	.	4G/	.
=60	=60	=60	=60
0r	0r	1F	1a
.	.	2.G/	2b-\
.	.	.	[2dd\
.	.	4F/	.
=61	=61	=61	=61
0r	0r	2D/	2dd\]
.	.	2.F/	2cc\
.	.	.	2a/
.	.	4G/	.
.	.	[2A/	[2cc\
=62	=62	=62	=62
0r	0r	4A/]	4cc\]
.	.	4B-\	4b-\
.	.	4c\	2a/
.	.	4d\	.
.	.	2e-i\	2g/
.	.	[2d\	2b-\
=63	=63	=63	=63
0r	0r	4d\]	4a/
.	.	4G/	4g/
.	.	2B-\	1g
.	.	1A	.
.	.	.	2f#i/
=64	=64	=64	=64
1GG	0r	2G/	1g
.	.	2.B-\	.
[1BB-	.	.	1r
.	.	4c\	.
.	.	[2d\	.
=65	=65	=65	=65
2BB-/]	0r	2d\]	0r
2C/	.	2e\	.
1D	.	2f\	.
.	.	[2d\	.
=66	=66	=66	=66
0E-i	0r	2d\]	0r
.	.	4c\	.
.	.	4B-\	.
.	.	4c\	.
.	.	4B-\	.
.	.	4A/	.
.	.	4G/	.
=67	=67	=67	=67
2.D\	0r	1F	1d
4C/	.	.	.
4BB-/	.	[1D	[1f
4AA/	.	.	.
[2D\	.	.	.
=68	=68	=68	=68
2D\]	0r	2D/]	2f/]
4C/	.	2E/	2g/
4BB-/	.	.	.
1AA	.	1F	1a
=69	=69	=69	=69
0GG	0r	0G	0b-
=70	=70	=70	=70
0r	0r	1D	2.a/
.	.	.	4g/
.	.	[1F	4f/
.	.	.	4e/
.	.	.	[2a/
=71	=71	=71	=71
0r	0r	2F/]	2a/]
.	.	2G/	4g/
.	.	.	4f/
.	.	1A	2e/
.	.	.	[2f/
=72	=72	=72	=72
0r	0r	0B-	4f/]
.	.	.	4e/
.	.	.	2.g/
.	.	.	4f/
.	.	.	4e/
.	.	.	4d/
=73	=73	=73	=73
0r	0r	2.A/	2c/
.	.	.	1f
.	.	4G/	.
.	.	4F/	.
.	.	4E/	.
.	.	[2A/	4e/
.	.	.	4d/
=74	=74	=74	=74
0r	0r	2A/]	2c/
.	.	4G/	1d
.	.	4F/	.
.	.	1E	.
.	.	.	2c#i/
=75	=75	=75	=75
1r	0r	1D	0d
2.BB-/	.	2r	.
.	.	[2d\	.
4C/	.	.	.
=76	=76	=76	=76
2D\	0r	2d\]	0r
4E\	.	2c\	.
4F\	.	.	.
2G\	.	2B-\	.
4F\	.	4A/	.
4E\	.	4G/	.
=77	=77	=77	=77
2D\	0r	2F/	0r
2F\	.	2A/	.
2E\	.	2G/	.
2D\	.	2B-\	.
=78	=78	=78	=78
2.F\	0r	2A/	0r
.	.	2.c\	.
4E\	.	.	.
2F\	.	.	.
.	.	4B-\	.
2D\	.	[2B-\	.
=79	=79	=79	=79
1C	0r	2B-\]	1r
.	.	2A/	.
1BB-	.	2.B-\	2r
.	.	.	[2dd\
.	.	4c\	.
=80	=80	=80	=80
0r	0r	2d\	2dd\]
.	.	4e\	2cc\
.	.	4f\	.
.	.	2g\	2b-\
.	.	4f\	4a/
.	.	4e\	4g/
=81	=81	=81	=81
0r	0r	2d\	2f/
.	.	2f\	2a/
.	.	2e\	2g/
.	.	2d\	2b-\
=82	=82	=82	=82
0F	0r	2.f\	2a/
.	.	.	2.cc\
.	.	4e\	.
.	.	2f\	.
.	.	.	4b-\
.	.	2d\	[2b-\
=83	=83	=83	=83
1F	0r	1c	2b-\]
.	.	.	2a/
[1G	.	1B-	1b-
=84	=84	=84	=84
2G\]	0r	0r	1r
4F\	.	.	.
4E\	.	.	.
1D	.	.	[1f
=85	=85	=85	=85
2AA/	0r	0r	1f]
2.D\	.	.	.
.	.	.	1f
4C/	.	.	.
4BB-/	.	.	.
4AA/	.	.	.
=86	=86	=86	=86
0GG	0r	0r	1.g
.	.	.	4f/
.	.	.	4e/
=87	=87	=87	=87
0r	0r	[0f	1d
.	.	.	2A/
.	.	.	[2d/
=88	=88	=88	=88
0r	0r	1f]	4d/]
.	.	.	4c/
.	.	.	4B-/
.	.	.	4A/
.	.	[1g	2G/
.	.	.	[2c/
=89	=89	=89	=89
0r	0r	2g\]	4c/]
.	.	.	4B-/
.	.	4f\	2c/
.	.	4e\	.
.	.	1d	2d/
.	.	.	[2f/
=90	=90	=90	=90
1r	0r	2A/	4f/]
.	.	.	4e/
.	.	2.d\	2f/
2.G\	.	.	2d/
.	.	4c\	.
.	.	4B-\	[2g/
4F\	.	4A/	.
=91	=91	=91	=91
2G\	0r	2G/	4g/]
.	.	.	4f/
2.A\	.	2.c\	4e/
.	.	.	4d/
.	.	.	1e
4G\	.	4B-\	.
2A\	.	2c\	.
=92	=92	=92	=92
2B-\	0r	2d\	0d
2G\	.	2.B-\	.
2D\	.	.	.
.	.	4A/	.
[2G\	.	2B-\	.
=93	=93	=93	=93
4G\]	0r	2G/	0r
4F\	.	.	.
4E\	.	2.c\	.
4D\	.	.	.
2C/	.	.	.
.	.	4B-\	.
[2D\	.	4A/	.
.	.	4G/	.
=94	=94	=94	=94
2D\]	0r	2A/	0r
2BB-/	.	1G	.
1AA	.	.	.
.	.	2F#i/	.
=95	=95	=95	=95
1GG	0r	2.G/	2r
.	.	.	2.b-\
.	.	4A/	.
1r	.	4B-\	.
.	.	4c\	4a/
.	.	2d\	2b-\
=96	=96	=96	=96
0r	0r	2B-\	2g/
.	.	2A/	2.cc\
.	.	2.c\	.
.	.	.	4b-\
.	.	.	4a/
.	.	4B-\	4g/
=97	=97	=97	=97
0r	0r	4A/	2a/
.	.	4G/	.
.	.	2B-\	1g
.	.	1A	.
.	.	.	2f#i/
=98	=98	=98	=98
2r	0r	2G/	1g
2GG/	.	1B-	.
2.BB-/	.	.	2f/
.	.	4A/	2b-\
4C/	.	4G/	.
=99	=99	=99	=99
2D\	0r	2F/	2a/
2GG/	.	2B-\	2g/
2r	.	2A/	2.a/
2AA/	.	[2c\	.
.	.	.	4g/
=100	=100	=100	=100
2.C/	0r	2c\]	2e/
.	.	4B-\	1g
4D\	.	4A/	.
2E\	.	2G/	.
2AA/	.	2c\	4f/
.	.	.	4e/
=101	=101	=101	=101
2r	0r	2B-\	2d/
2BB-/	.	1d	1f
2.D\	.	.	.
.	.	4c\	4e/
4E\	.	4B-\	4d/
=102	=102	=102	=102
2F\	0r	2A/	2c/
2BB-/	.	2f\	2d/
2r	.	2e\	2c/
2C/	.	[2g\	4B-/
.	.	.	4A/
=103	=103	=103	=103
2.E\	0r	2g\]	2.G/
.	.	4f\	.
4F\	.	4e\	4A/
2G\	.	2d\	2B-/
2C/	.	2r	2c/
=104	=104	=104	=104
2r	0r	2e\	2A/
2D\	.	2.f\	1a
2.F\	.	.	.
.	.	4e\	.
.	.	2d\	4g/
4G\	.	.	4f/
=105	=105	=105	=105
2A\	0r	2c\	2e/
2D\	.	2d\	1f
2r	.	2A/	.
2GG/	.	[2B-\	4e/
.	.	.	4d/
=106	=106	=106	=106
2.BB-/	0r	4B-\]	2d/
.	.	4A/	.
.	.	2G/	2b-\
4C/	.	.	.
2D\	.	2F/	2a/
2GG/	.	2G/	[2b-\
=107	=107	=107	=107
2D\	0r	2F/	4b-\]
.	.	.	4a/
2E-i\	.	2G/	1g
1D	.	1A	.
.	.	.	2f#i/
=108	=108	=108	=108
0GGl	0r	0Gl	0gl
!!LO:LB:i:g=z
=109||	=109||	=109||	=109||
*>C	*>C	*>C	*>C
*clefF4	*clefGv2	*clefGv2	*clefG2
*k[b-]	*k[b-]	*k[b-]	*k[b-]
*M2/1	*M2/1	*M2/1	*M2/1
*met(C|)	*met(C)	*met(C|)	*met(C|)
!!section: Osanna
!!!OMD: Osanna
*	*rscale:1/2	*	*
!	!LO:N:vis=0	!	!
0r	0r	[0d	0a
=110	=110-	=110	=110
0r	0ryy	1d]	1b-
.	.	1c	[1a
=111	=111	=111	=111
!	!LO:N:vis=0	!	!
0r	0r	1A	2a/]
.	.	.	2g/
.	.	1B-	1f
=112	=112-	=112	=112
0r	0ryy	1c	2e/
.	.	.	1a
.	.	1B-	.
.	.	.	2g/
=113	=113	=113	=113
!	!LO:N:vis=0	!	!
[0D	0r	0A	1a
.	.	.	1r
=114	=114-	=114	=114
1D]	0ryy	1B-	0r
1C	.	[1A	.
=115	=115	=115	=115
!	!LO:N:vis=0	!	!
1AA	0r	2A/]	0r
.	.	2G/	.
1BB-	.	1F	.
=116	=116-	=116	=116
1C	0ryy	2E/	1r
.	.	1A	.
1BB-	.	.	1d
.	.	2G/	.
=117	=117	=117	=117
!	!LO:N:vis=0	!	!
2AA/	0r	1A	2c/
2D\	.	.	2f/
2BB-/	.	2B-\	2d/
[2C/	.	2G/	[2e/
=118	=118-	=118	=118
2C/]	0ryy	2A/	4e/]
.	.	.	4d/
2D\	.	2F/	1d
1AA	.	1E	.
.	.	.	2c#i/
=119	=119	=119	=119
!	!LO:N:vis=0	!	!
1A	[y0D	1D	4d/
.	.	.	4e/
.	.	.	4f/
.	.	.	4g/
2.F\	.	[1d	2a/
.	.	.	[2b-\
4G\	.	.	.
=120	=120-	=120	=120
2A\	0D]yy	2d\]	4b-\]
.	.	.	4a/
2B-\	.	2e\	1g
1A	.	4f\	.
.	.	4e\	.
.	.	4d\	2f#i/
.	.	4c\	.
=121	=121	=121	=121
!	!LO:N:vis=0	!	!
1G	[y0G	2d\	2.g/
.	.	2B-\	.
.	.	.	4a/
[1C	.	2c\	2g/
.	.	[2e-i\	[2cc\
=122	=122-	=122	=122
2C/]	0G]yy	4e-\]	2cc\]
.	.	4d\	.
2D\	.	1d	4b-\
.	.	.	4a/
1E-i	.	.	1g
.	.	2c\	.
=123	=123	=123	=123
0D	0A	[0d	[0f
=124	=124-	=124	=124
0BB-	0B-	0d]	0f]
=125	=125	=125	=125
[0C	0G	1.c	0e
.	.	[2G/	.
=126	=126-	=126	=126
0C]	[0c	4G/]	0g
.	.	4F/	.
.	.	4E/	.
.	.	4D/	.
.	.	1E	.
=127	=127	=127	=127
0FF	0c]	1F	[0a
.	.	2A/	.
.	.	2B-\	.
=128	=128-	=128	=128
0F	0A	0c	1a]
.	.	.	1f
=129	=129	=129	=129
0BB-	0d	0B-	0f
=130	=130-	=130	=130
[0E-	0B-	1.G	[0g
.	.	2A/	.
=131	=131	=131	=131
!	!LO:N:vis=0	!	!
1E-]	[y0e-	1B-	0g]
1C	.	1c	.
=132	=132-	=132	=132
1.C	0e-]yy	1G	1r
.	.	1c	[1g
2D\	.	.	.
=133	=133	=133	=133
1E-i	0c	2r	1g]
.	.	2G/	.
1F	.	2F/	[1a
.	.	[2c\	.
=134	=134-	=134	=134
0D	0d	2c\]	1a]
.	.	4B-\	.
.	.	4A/	.
.	.	2.B-\	1f
.	.	4A/	.
=135	=135	=135	=135
0C	0e	2.c\	1.g
.	.	4B-\	.
.	.	2G/	.
.	.	2A/	4f/
.	.	.	4e/
=136	=136-	=136	=136
1BB-	0f	1B-	1d
2FF/	.	2A/	2c/
[2BB-/	.	2F/	[2d/
=137	=137	=137	=137
4BB-/]	0B-	2G/	4d/]
4C/	.	.	4e/
2D\	.	1F	2f/
2BB-/	.	.	2d/
[2E-i\	.	4E/	[2g/
.	.	4F/	.
=138	=138-	=138	=138
4E-\]	0c	1G	4g/]
4D\	.	.	4f/
4C/	.	.	4e/
4BB-/	.	.	4d/
2C/	.	2E/	2e/
4BB-/	.	2F/	4d/
4AA/	.	.	4c/
=139	=139	=139	=139
2GG/	0d	2G/	2B-/
2.G\	.	1B-	2.d/
4F\	.	.	4e/
2D\	.	2A/	2f/
=140	=140-	=140	=140
2E\	[0c	2G/	2g/
2.F\	.	2F/	2.a/
.	.	2.A/	.
4G\	.	.	4b-\
[2A\	.	.	[2cc\
.	.	4B-\	.
=141	=141	=141	=141
4A\]	0c]	2c\	4cc\]
4G\	.	.	4dd\
2A\	.	2F/	2cc\
2.F\	.	1f	2.a/
4E\	.	.	4g/
=142	=142-	=142	=142
1G	0B-	0d	2b-\
.	.	.	2.g/
2GG/	.	.	.
.	.	.	4f/
2BB-/	.	.	2d/
=143	=143	=143	=143
!	!LO:N:vis=0	!	!
2C/	[y0A	2r	2e/
2.D\	.	1d	2.f/
4E\	.	.	4g/
[2F\	.	2c\	[2a/
=144	=144-	=144	=144
4F\]	0A]yy	2A/	4a/]
4E\	.	.	4g/
4D\	.	2.d\	4f#i/
4C/	.	.	4e/
1D	.	.	1f#i
.	.	4c\	.
.	.	2A/	.
*	*rscale:1	*	*
=145	=145	=145	=145
*	*M2/1	*	*
*	*met(C|)	*	*
2GG/	0r	2.G/	2g/
2C/	.	.	2e/
.	.	4A/	.
2BB-/	.	2B-\	2d/
[2D\	.	[2A/	[2f/
=146	=146	=146	=146
2D\]	0r	4A/]	4f/]
.	.	4F/	4e/
2GG/	.	2G/	1d
1AA	.	1E	.
.	.	.	2c#i/
=147	=147	=147	=147
2r	1r	2.D/	1d
1A	.	.	.
.	.	4E/	.
.	1D	4F/	2r
.	.	4G/	.
2F\	.	2A/	[2d/
=148	=148	=148	=148
2G\	1G	2B-\	2d/]
2E\	.	2c\	2e/
1D	2A/	1d	2f/
.	2B-\	.	2d/
=149	=149	=149	=149
2E\	2G/	2r	1g
1C	1c	2G/	.
.	.	1c	2e/
[2F\	2A/	.	2a/
=150	=150	=150	=150
2F\]	2d\	2A/	2f/
2G\	2B-\	1G	1b-
1E-	1e-	.	.
.	.	2B-\	2g/
=151	=151	=151	=151
2F\	2c\	2A/	2a/
2BB-/	2d\	2F/	2b-\
2r	2e\	2c\	2cc\
[2B-\	2f\	[2d\	2f/
=152	=152	=152	=152
2B-\]	2B-\	4d\]	2g/
.	.	4e\	.
2A\	2c\	2f\	2a/
2G\	2d\	2g\	2b-\
2A\	[2c\	2e\	[2a/
=153	=153	=153	=153
2F\	2c\]	2f\	4a/]
.	.	.	4g/
2G\	2B-\	1d	1g
1D	1A	.	.
.	.	2d\	2f#i/
=154	=154	=154	=154
0GGl	0Gl	0dl	0gl
!!LO:LB:i:g=z
!!LO:TX:rj:i:Y=30:t=fine
=155||	=155||	=155||	=155||
*>D	*>D	*>D	*>D
*clefF4	*clefGv2	*clefGv2	*clefG2
*k[b-]	*k[b-]	*k[b-]	*k[b-]
*M2/1	*M2/1	*M2/1	*M2/1
*met(C)	*met(C)	*met(C)	*met(C)
!!section: Benedictus
!!!OMD: Benedictus
0r	0r	0r	[0g
=156	=156	=156	=156
0r	0r	0r	1g]
.	.	.	1f
=157	=157	=157	=157
0r	0r	[0G	1.g
.	.	.	2a/
=158	=158	=158	=158
0r	0r	1G]	1b-
.	.	1F	1cc
=159	=159	=159	=159
0r	0r	1.G	1.b-
.	.	2A/	2a/
=160	=160	=160	=160
0r	0r	0B-	2.g/
.	.	.	4f/
.	.	.	4g/
.	.	.	4a/
.	.	.	2b-\
=161	=161	=161	=161
0r	0r	0c	2a/
.	.	.	1g
.	.	.	4f/
.	.	.	4e/
=162	=162	=162	=162
0r	0r	1.B-	[0d
.	.	2A/	.
=163	=163	=163	=163
0r	0r	2.G/	0d]
.	.	4F/	.
.	.	4G/	.
.	.	4A/	.
.	.	2B-\	.
=164	=164	=164	=164
0r	0r	2A/	0e
.	.	1G	.
.	.	4F/	.
.	.	4E/	.
=165	=165	=165	=165
0r	0r	[0D	1f
.	.	.	2d/
.	.	.	2f/
=166	=166	=166	=166
0r	0r	0D]	2g/
.	.	.	1a
.	.	.	4g/
.	.	.	4f/
=167	=167	=167	=167
0r	0r	0E	2.g/
.	.	.	4a/
.	.	.	2b-\
.	.	.	2cc\
=168	=168	=168	=168
0r	0r	1F	1a
.	.	2D/	2f/
.	.	2F/	2a/
=169	=169	=169	=169
0r	0r	2G/	2b-\
.	.	1A	1cc
.	.	4G/	4b-\
.	.	4F/	4a/
=170	=170	=170	=170
0r	0r	2.G/	2.b-\
.	.	4A/	4cc\
.	.	2B-\	2dd\
.	.	2c\	[2cc\
=171	=171	=171	=171
0r	0r	1A	4cc\]
.	.	.	4b-\
.	.	.	4a/
.	.	.	4g/
.	.	2F/	1a
.	.	2A/	.
=172	=172	=172	=172
0r	0r	2B-\	2.g/
.	.	1c	.
.	.	.	4f/
.	.	.	2e/
.	.	4B-\	[2d/
.	.	4A/	.
=173	=173	=173	=173
0r	0r	2.B-\	4d/]
.	.	.	4e/
.	.	.	2.f/
.	.	4c\	.
.	.	2d\	.
.	.	.	4g/
.	.	[2c\	4a/
.	.	.	4b-\
=174	=174	=174	=174
0r	0r	4c\]	2a/
.	.	4B-\	.
.	.	4A/	1g
.	.	4G/	.
.	.	1A	.
.	.	.	2f#i/
=175	=175	=175	=175
0r	0r	1G	2g/
.	.	.	1b-
.	.	1r	.
.	.	.	4a/
.	.	.	4g/
=176	=176	=176	=176
0r	0r	0d	2b-\
.	.	.	1a
.	.	.	4g/
.	.	.	4f/
=177	=177	=177	=177
0r	0r	1c	1e
.	.	1d	1d
=178	=178	=178	=178
0D	0r	0f	0r
=179	=179	=179	=179
1C	0r	1e	0r
1D	.	[1d	.
=180	=180	=180	=180
0F	0r	2d\]	0r
.	.	4c\	.
.	.	4B-\	.
.	.	1A	.
=181	=181	=181	=181
1E	0r	1c	0r
[1D	.	2d\	.
.	.	[2f\	.
=182	=182	=182	=182
2D\]	0r	2f\]	0r
4C/	.	4e\	.
4BB-/	.	4d\	.
1AA	.	2c\	.
.	.	4B-\	.
.	.	4A/	.
=183	=183	=183	=183
1C	0r	2G/	0r
.	.	2c\	.
2D\	.	2B-\	.
[2F\	.	[2A/	.
=184	=184	=184	=184
2F\]	0r	4A/]	0r
.	.	4B-\	.
4E\	.	2.c\	.
4D\	.	.	.
1C	.	.	.
.	.	4d\	.
.	.	[2e\	.
=185	=185	=185	=185
1E	0r	4e\]	0r
.	.	4f\	.
.	.	2g\	.
2F\	.	2f\	.
[2A\	.	[2e\	.
=186	=186	=186	=186
2A\]	0r	4e\]	0r
.	.	4d\	.
2F\	.	1d	.
1E	.	.	.
.	.	2c#i\	.
=187	=187	=187	=187
1D	0r	1d	1r
1r	.	2G/	1d
.	.	2B-\	.
=188	=188	=188	=188
0r	0r	2A/	[0f
.	.	2.d\	.
.	.	4c\	.
.	.	2d\	.
=189	=189	=189	=189
0r	0r	2A/	0f_
.	.	2r	.
.	.	2A/	.
.	.	[2d\	.
=190	=190	=190	=190
0r	0r	2d\]	0f]
.	.	4c\	.
.	.	4B-\	.
.	.	1A	.
=191	=191	=191	=191
1r	0r	2G/	0g
.	.	2.B-\	.
2GG/	.	.	.
.	.	4c\	.
2BB-/	.	2d\	.
=192	=192	=192	=192
2AA/	0r	2c\	[0a
2.D\	.	2.f\	.
4C/	.	4e\	.
2D\	.	2d\	.
=193	=193	=193	=193
2AA/	0r	4e\	0a_
.	.	4d\	.
2r	.	4c\	.
.	.	4B-\	.
2AA/	.	2.A/	.
[2D\	.	.	.
.	.	4G/	.
=194	=194	=194	=194
2D\]	0r	4F/	0a]
.	.	4E/	.
4C/	.	1G	.
4BB-/	.	.	.
1AA	.	.	.
.	.	2F#i/	.
=195	=195	=195	=195
1GG	0r	2G/	0b-
.	.	2.G/	.
1r	.	.	.
.	.	4D/	.
.	.	2G/	.
=196	=196	=196	=196
0r	0r	4A/	0a
.	.	4G/	.
.	.	4F/	.
.	.	4E/	.
.	.	1F	.
=197	=197	=197	=197
2G\	0r	2r	1g
2.G\	.	2.B-\	.
.	.	.	[1dd
4D\	.	4A/	.
2G\	.	2B-\	.
=198	=198	=198	=198
4A\	0r	4c\	1dd]
4G\	.	4B-\	.
4F\	.	4A/	.
4E\	.	4G/	.
1F	.	4A/	1cc
.	.	4B-\	.
.	.	4c\	.
.	.	4d\	.
=199	=199	=199	=199
1G	0r	2e-i\	1.b-
.	.	1d	.
1E-i	.	.	.
.	.	2c\	4a/
.	.	.	4g/
=200	=200	=200	=200
2D\	0r	2d\	[0f
2BB-/	.	2.D/	.
2.D\	.	.	.
.	.	4E/	.
.	.	4F/	.
4E\	.	4G/	.
=201	=201	=201	=201
2F\	0r	2A/	0f]
2BB-/	.	2B-\	.
2AA/	.	2c\	.
2BB-/	.	[2B-\	.
=202	=202	=202	=202
1C	0r	2B-\]	1r
.	.	2A/	.
1BB-	.	1B-	2r
.	.	.	[2d/
=203	=203	=203	=203
0r	0r	2.d\	4d/]
.	.	.	4e/
.	.	.	4f/
.	.	4e\	4g/
.	.	2f\	2a/
.	.	2B-\	2b-\
=204	=204	=204	=204
0r	0r	2A/	2cc\
.	.	2B-\	1b-
.	.	1c	.
.	.	.	2a/
=205	=205	=205	=205
2.GG/	0r	1B-	1b-
4AA/	.	.	.
4BB-/	.	2B-\	1r
4C/	.	.	.
2D\	.	[2A/	.
=206	=206	=206	=206
2C/	0r	4A/]	0r
.	.	4G/	.
2BB-/	.	1G	.
1AA	.	.	.
.	.	2F#i/	.
=207	=207	=207	=207
2GG/	0r	2.G/	1b-
2.G\	.	.	.
.	.	4A/	.
.	.	4B-\	2b-\
4F\	.	4c\	.
2D\	.	2d\	[2a/
=208	=208	=208	=208
2F\	0r	2c\	4a/]
.	.	.	4g/
2G\	.	2B-\	1g
1D	.	1A	.
.	.	.	2f#i/
=209	=209	=209	=209
2GG/	0r	2G/	0g
2r	.	2.B-\	.
2GG/	.	.	.
.	.	4A/	.
2BB-/	.	2G/	.
=210	=210	=210	=210
2AA/	0r	2A/	1f
2.BB-/	.	2.F/	.
.	.	.	1d
4C/	.	4E/	.
2D\	.	2F/	.
=211	=211	=211	=211
2GG/	0r	2G/	2g/
2r	.	2.E-/	2.b-\
2G\	.	.	.
.	.	4F/	4a/
2B-\	.	2G/	2g/
=212	=212	=212	=212
2A\	0r	1D	2a/
2.B-\	.	.	2.f/
.	.	2r	.
4c\	.	.	4e/
2d\	.	2D/	2f/
=213	=213	=213	=213
1G	0r	2E/	2g/
.	.	2C/	2.e/
1C	.	1c	.
.	.	.	4f/
.	.	.	2g/
=214	=214	=214	=214
2G\	0r	1B-	2.d/
2.B-\	.	.	.
.	.	.	4e/
.	.	2r	2f/
4A\	.	.	.
2G\	.	2d\	2g/
=215	=215	=215	=215
2A\	0r	2c\	2e/
2.F\	.	2A/	2.a/
.	.	2.c\	.
4E\	.	.	4g/
2F\	.	.	4f/
.	.	4d\	4e/
=216	=216	=216	=216
2G\	0r	2B-\	2d/
2.E-\	.	2G/	1g
.	.	2.B-\	.
4F\	.	.	.
2G\	.	.	2e/
.	.	4c\	.
=217	=217	=217	=217
2D\	0r	1A	2.f/
2.F\	.	.	.
.	.	.	4e/
.	.	2r	2.d/
4E-i\	.	.	.
2D\	.	2A/	.
.	.	.	4c/
=218	=218	=218	=218
2E-i\	0r	2G/	2B-/
2.C/	.	2E-i/	1e-i
.	.	2.G/	.
4BB-/	.	.	.
2C/	.	.	2c/
.	.	4A/	.
=219	=219	=219	=219
2D\	0r	2F/	2A/
2.BB-/	.	2D/	2.d/
.	.	2.F/	.
4AA/	.	.	4c/
2BB-/	.	.	4B-/
.	.	4G/	4A/
=220	=220	=220	=220
2C/	0r	1E	2G/
2.AA/	.	.	2.c/
.	.	2r	.
4BB-/	.	.	4d/
2C/	.	2c\	4e/
.	.	.	4f/
=221	=221	=221	=221
1GG	0r	2B-\	4g/
.	.	.	4a/
.	.	2.d\	2b-\
2FF/	.	.	2a/
.	.	4c\	.
2GG/	.	2B-\	2b-\
=222	=222	=222	=222
2AA/	0r	4c\	2a/
.	.	4B-\	.
2BB-/	.	4A/	1g
.	.	4G/	.
2C/	.	1A	.
2D\	.	.	2f#i/
=223	=223	=223	=223
0GGl	0r	0Gl	0gl
!!LO:TX:i:Y=40:rj:t=Osanna ut supra
=||	=||	=||	=||
*-	*-	*-	*-
!!!RDF**kern: l=long note in original notation
!!!RDF**kern: i=editorial accidental
!!!RDF**kern: V=start of tuplet marker
!!!RDF**kern: Z=end of tuplet marker
!!!ENC:	Chris Gage 10-21-2014
!!!END:	2014/10/26/
!!!EED:	Jesse Rodin
!!!EEV:	2015/03/09/
!!!ONB:	Translated from MusicXML and edited on 2015/03/09/ by Craig Sapp
!!muse2ps: T^@{OPR}^u^@{ONM}{. }@{OTL}^C^@{COM}^i2I150v85,85,85,150Q16
